X:1
T:Title
%%score { ( 1 4 ) | ( 2 3 ) }
L:1/8
M:9/8
K:G
V:1 treble nm="Grand Piano"
V:4 treble 
V:2 treble 
V:3 treble 
V:1
 z3 z3[Q:1/4=107] DGA | B3 B3 Bc[DGB] | [DGB]3 [DFA]3 D-[DF]G | [FA]3 [Fc]3 [Fe][Gd]B |[M:3/4] B6 | %5
[M:3/8] z GA |[M:9/8] B3 B3 Bcd | [Ed]3 [Ec]3 [CE][EB][EA] | G3 G3 FGA |[M:3/4] G6 | %10
[M:12/8][K:bass] D,E,F,[K:treble] z3 B2 B B2 B | Bce d6 B3 | z3 c6- c2 z | %13
 [CFA][GB][Dc] [DB]3- [DB]6 | D,E,F,[K:treble] z3 B2 B B2 B | Bcd e6 [Ge]3 | %16
 z6 [DB]2 [B,G] [A,F]2 [EFc] |[M:9/8] [DFB]2 [CFA] G2- [DG-] [EG-]2 [EG-] | [DG]3 z3 z3 |] %19
V:2
 z3 z3 [G,B,]2 [G,CD] | z3 z3 .D3[K:bass] | D,3 D,3 z A,[D,B,D] | %3
 [D,D]3 [D,A,]3 [D,C][E,B,][F,A,D] |[M:3/4] [G,D]6 |[M:3/8] [G,B,]2[K:treble] [G,CD] | %6
[M:9/8] [G,DG]3 [G,DG]3 G[A,F][G,B,=F] | [C,C]3 [C,C]3 [C,G,]2 [C,A,] | %8
 [D,B,D]3 [D,B,D]3 A,B,[D,CD] |[M:3/4] [G,B,D]6 |[M:12/8] z6[K:treble] [DG]2 [DG] [DG]2 [G,DG] | %11
 .D3 z3 z6 | z3[K:bass] A6- A2 z | z B,[D,A,] G,2 G, G,2 G, G,3 | %14
 z6[K:treble] [DG]2 [DG] [DG]2 [G,DG] | .[G,G]3 z3 z6[K:bass] | z3 d6- d2[K:bass] z | %17
[M:9/8] D,2 D, z2 B, C2 C | B,3 z3 z3 |] %19
V:3
 x9 | [G,DG]3 [G,DG]3 [G,G]-[G,EG][K:bass]G, | z3 z3 .D,3 | x9 |[M:3/4] x6 | %5
[M:3/8] x2[K:treble] x |[M:9/8] z3 z3 .G,3 | x9 | z3 z3 .[D,D]3 |[M:3/4] x6 | %10
[M:12/8] x6[K:treble] x6 | [G,G]-[G,EG][G,CG] [G,B,G]6 [G,DG]3 | GAB[K:bass] z3 D,2 D, D,2 D, | %13
 .D,3 z3 z6 | x6[K:treble] x6 | D-[A,DF][B,D=F] [CE]6[K:bass] [C,C]3 | %16
 cde z3 D,2 D, D,2[K:bass] D, |[M:9/8] z3 G,6- | G,3 z3 z3 |] %19
V:4
 x9 | x9 | z3 z3 .F,3 | x9 |[M:3/4] x6 |[M:3/8] D2 z |[M:9/8] x9 | x9 | x9 |[M:3/4] x6 | %10
[M:12/8][K:bass] z3[K:treble] G,6- G,2 z | x12 | Bcd z3 D2 D D2 [CFA] | x12 | %14
 z3[K:treble] G,6- G,2 z | x12 | x12 |[M:9/8] z3 .B,3 z3 | x9 |] %19

